X: 465
T: LITHUANIAN SONG.	 op. 74
C: Fryderyk Chopin
%%abc-version 2.0
%%abcx-abcm2ps-target-version 5.9.1 (29 Sep 2008)
%%abc-creator hum2abc beta
%%abcx-conversion-date 2021/10/03 11:24:05
%%abc-edited-by Jędrzej Mróz
%%abc-edited-by Mateusz Mrugas
%%abcx-initial-encoding-date 2020-02-02
%%humdrum-veritas 2783809413
%%humdrum-veritas-data 2601845553
%%linebreak <none>
%%barnumbers 0
L: 1/8
M: C
N: Derived from 074-1c-LW-016.krn
P: 17 | POLISH SONGS | BY | WITWICKI, ZALESKI, MICKIEWICZ, ETC, | FOR | A SOPRANO OR TENOR VOICE | WITH ACCOMPANIMENT FOR THE | Pianoforte
Q: "M.M. [quarter] = 72."
V: 1 clef=treble
V: 2 clef=treble
V: 3 clef=bass
K: F
[V:1] z8 | 
[V:2] c=B_BA G/F/E/D/C2 & C4!accent!C2x2 | 
[V:3] [A,4C,4F,,4][B,4F,4] | 
[V:1] z8 | 
[V:2] c=B_BA G/F/E/D/C2 & C4!accent!C2x2 | 
[V:3] [A,4C,4F,,4][B,4F,4] | 
[V:1] z8 | 
[V:2] [F2C2][F2D2][G4D4B,4] | 
[V:3] [A,2F,2][A,2D,2][G,4D,4G,,4] | 
[V:1] z8 | 
[V:2] [G4E4C4][G4D4=B,4] | 
[V:3] [G,4C,4][G,4D,4G,,4] | 
[V:1] z8 | 
[V:2] GG/=B/ cG/B/ cG/B/ c/G/A/G/ & C8 | 
[V:3] [E8G,8C,8]- | 
[V:1] !fermata!z8 ||  
[V:2] C2-C/G/A/G/!fermata!C4 ||  
[V:3] !fermata![E8G,8C,8] ||  
[V:1] A2A> AG2A A | 
[V:2] [AF]C[AF]C [GE]C[AF]C | 
[V:3] [F,4F,,4]C,2F,2 | 
[V:1] B2c BA2c z | 
[V:2] [BG]C (3[cA]C[BG] [AF]C[AF]C | 
[V:3] E,4F,4 | 
[V:1] G2A G (3F E F (3A G F | 
[V:2] [EC]G,[EC]G, [FD=B,]G,[FDB,]G, | 
[V:3] C,4C,,4- | 
[V:1] G4F2z2 | 
[V:2] [F_D_B,]G,[EC]B, [FA,]CA,C | 
[V:3] [C,4C,,4]F,,4- | 
[V:1] A2A AG2A A | 
[V:2] [AF]C[AF]C [GE]C[AF]C | 
[V:3] [F,4F,,4]C,2F,2 | 
[V:1] B2c BA2c z | 
[V:2] [BG]C (3[cA]C[BG] [AF]C[AF]C | 
[V:3] E,4F,4 | 
[V:1] G2A G (3F E F (3A G F | 
[V:2] [GE]G,[EC]G, [FD=B,]G,[FDB,]G, | 
[V:3] C,4C,,4- | 
[V:1] G4F2z2 | 
[V:2] [F_D_B,]G,[EC]B, [FA,][AA,][AA,][AA,] | 
[V:3] [C,4C,,4]F,,2z2 | 
[V:1] z2A A A A A A | 
[V:2] .[AF=D].[AFD].[AFD].[AFD] .[AFD].[AFD].[AFD].[AFD] | 
[V:3] z8 | 
[V:1] c6G2 | 
[V:2] [AE][AE][AE][AE] [GE][GE][GE][GE] | 
[V:3] [CA,][CA,][CA,][CA,] CCCC | 
[V:1] G2>G2 B A G A | 
[V:2] [G_E][GE][GE][GE] [AEC][AEC][AEC][AEC] | 
[V:3] CCCC F,F,F,F, | 
[V:1] B4F2z2 | 
[V:2] [BD][BD][BD][BD] [FD][FD][FD][FD] | 
[V:3] B,B,B,B, B,B,A,A, | 
[V:1] G2A BA2d2 | 
[V:2] [=ED][ED][ED][ED] [E^CA,][ECA,][FDA,][FDA,] | 
[V:3] G,G,G,G, G,G,F,F, | 
[V:1] A G F EF2D z | 
[V:2] [GDB,][GDB,][G^CA,][GCA,][F2D2]z2 | 
[V:3] E,E,A,,A,,D,2z2 | 
[V:1] z E E E2<E2E | 
[V:2] z [ED^G,E,][E2D2G,2E,2]z [^CA,E,][C2A,2E,2] | 
[V:3] [B,,2B,,,2]>[B,,2B,,,2][A,,3A,,,3][A,,A,,,] | 
[V:1] z E E E2<E2E | 
[V:2] z [ED^G,E,][E2D2G,2E,2]z [^CA,E,][C2A,2E,2] | 
[V:3] [B,,2B,,,2]>[B,,2B,,,2][A,,3A,,,3][A,,A,,,] | 
[V:1] z2F> FF3^F | 
[V:2] [F_E=C][FEC][FEC][FEC] [FDF,][FDF,][FDF,][^FD^F,] | 
[V:3] A,,A,,A,,A,, B,,B,,B,,B,, | 
[V:1] z2G G2<G2^G | 
[V:2] [G=FDG,][GFDG,][GFDG,][GFDG,] [GEG,][GEG,][GEG,][^GE^G,] | 
[V:3] =B,,B,,B,,B,, C,C,C,C, | 
[V:1] A AA2A3A | 
[V:2] [A=GEA,][AGEA,][AGEA,][AGEA,] [AFDA,][AFDA,][A^FCA,][AECA,] | 
[V:3] [^C,^C,,][C,C,,][C,C,,][C,C,,] [D,D,,][D,D,,][^D,^D,,][E,E,,] | 
[V:1] c4A2A2 | 
[V:2] [A^DCA,][ADCA,][ADCA,][ADCA,] [ADC][ADC][AD=B,][ADB,] | 
[V:3] [=F,=F,,][F,F,,][F,F,,][F,F,,] [F,F,,][F,F,,][F,F,,][F,F,,] | 
[V:1] E2A2^G2c2 ||  
[V:2] [AE=B,][AEB,][AEB,][AEB,] [^GEB,][GEB,][GEB,][GEB,] ||  
[V:3] [E,E,,][E,E,,][E,E,,][E,E,,] [E,E,,][E,E,,][E,E,,][E,E,,] ||  
[V:1] [M:3/4]=B2A2z2 | 
[V:2] [M:3/4][A2C2]z efe | 
[V:3] [M:3/4][E,2A,,2][C2E,2A,,2][C2E,2A,,2] | 
[V:1] z6 | 
[V:2] ^d=B!accent!=d2cE | 
[V:3] [=B,2E,2A,,2][B,2E,2A,,2][C2E,2A,,2] | 
[V:1] z6 | 
[V:2] !accent!A2>e2fe | 
[V:3] [C2E,2A,,2][C2E,2A,,2][C2E,2A,,2] | 
[V:1] z6 ||  
[V:2] ^d=B!accent!=d2cE ||  
[V:3] [=B,2E,2A,,2][B,2E,2A,,2][C2E,2A,,2] ||  
[V:1] [M:C]c4=B2!fermata!_B2 | 
[V:2] [M:C]A2[E6C6_B,6G,6] | 
[V:3] [M:C][C2E,2A,,2]!fermata![C,6C,,6] | 
[V:1] A2A A2<G2A | 
[V:2] [AF]C[AF]C [GE]C[AF]C | 
[V:3] [F,4F,,4]C,2F,2 | 
[V:1] B B c> BA2c A | 
[V:2] [BG]C[BG]C [AF]C[cA]C | 
[V:3] E,4F,4 | 
[V:1] G G A G F A G F | 
[V:2] [GE]C[GE]C [FD=B,]G,[FDB,]G, | 
[V:3] C,4[C,4C,,4] | 
[V:1] G4F2z2 | 
[V:2] [F_D]G,[EC]_B, [FA,]CA,C | 
[V:3] [C,4C,,4][F,2F,,2]z2 | 
[V:1] A A B A2<A2G | 
[V:2] [^FC]D[FC]D [GB,]D[GB,]D | 
[V:3] [D,4D,,4][G,4G,,4] | 
[V:1] F c d cc2B A | 
[V:2] [A_E]F[AE]F[B4F4D4] | 
[V:3] [F,4F,,4][B,4F,4B,,4] | 
[V:1] A2G2z2z A | 
[V:2] z2.[F2B,2G,2].[F2B,2G,2]z2 | 
[V:3] z2._D,2.D,2z2 | 
[V:1] A2G2z4 | 
[V:2] z2.[F2=B,2G,2].[F2B,2G,2]z2 | 
[V:3] z2.=D,2.D,2z2 | 
[V:1] d4G4 | 
[V:2] [F8=B,8G,8] | 
[V:3] [D,8G,,8] | 
[V:1] _B> A G AF2A2 | 
[V:2] z [EB,] z [EB,] z [FA,] z [F=CF,] | 
[V:3] C,2^C,2D,2A,,2 | 
[V:1] B A G A2<G2F | 
[V:2] z [F_DB,] z [ECB,] c=B_BA & x4C4 | 
[V:3] G,,2C,2[A,4C,4F,,4] | 
[V:1] z8 | 
[V:2] G/F/E/D/C2c=B_BA & C4C4 | 
[V:3] [B,4F,4][A,4C,4F,,4] | 
[V:1] z8 | 
[V:2] G/F/E/D/C2[F2C2][F2D2] & C2x6 | 
[V:3] [B,4F,4][A,2F,2][A,2D,2] | 
[V:1] z8 | 
[V:2] [G4D4B,4][G4E4C4B,4] | 
[V:3] [G,4G,,4]C,4 | 
[V:1] !fermata!z8 |]  
[V:2] !fermata![F8C8A,8] |]  
[V:3] !fermata![F,8F,,8] |]
